X:1
T:Title
%%score [ 1 2 3 4 ]
L:1/8
Q:1/4=120
M:2/2
K:F
V:1 treble nm="MusicXML Part"
V:2 treble-8 nm="MusicXML Part"
V:3 treble-8 nm="MusicXML Part"
V:4 bass nm="MusicXML Part"
V:1
 A4 A2 A2 | F4 G4 |"^Magnificat Sexti Toni \"Anima mea\"" A8 |"^Christobal de Morales" G2 F2 G4 | %4
w: A- ni- ma|me- a|do-|* * mi-|
 F2 A2 A2"^1545" A2 |[M:2/2] F4 G4 | A8 | G8 | F2 A2 A2 A2 | F4 G4 | A6 G2- | GF F4 E2 | %12
w: num, a- ni- ma|me- a|do-|mi-|num, a- ni- ma|me- a|do- *|* * * mi-|
"^Et exultavit spiritus meus\nin deo salutari meo." F8 ||[M:2/2] z4 c4 | B2 c2 A2 G2- | %15
w: num.|Qui-|a re- spe *|
 GA B3 A A2- | A2 G2 A4 | z4 z2 F2 | c6 B2 |[M:2/2] A4 G4- | G4 A4- | A2 A2 G2 B2- | BA A4 G2 | %23
w: |* * xit|hu-|mi- li-|­ta- tem|* an-|* cil- lae su-||
 A4 z2 c2 | B2 A2 c3 c | c2 B2 A4 | B2 G2 A4 | G2 F3 E C2 | D2 E2 F4- | F2 E2 D4 | C2 c4 A2 | %31
w: ae. Ec-|ce, e- nim ex|hoc be- a-|tam me di-||||­cent om- nes|
 B2 c2 d2 G2 | c4 d2 cB | A2 B2 G2 A2- | A2 F2 G2 F2 | DEFG AB A2- | AG F3 E E2 | %37
w: ge- ne- ra- ti-|o- * * *|* * nes, om-|* nes ge- ne-|­ra * * * * * *|* ti- o- * *|
"^Quia fecit mihi magna,\nqui potens est et sanctum\nnomen eius." F8 ||[M:2/2] z8 | z8 | F6 G2 | %41
w: nes.|||Et mi-|
 A2 F2 B4- | B2 AG A2 GF | E2 A4 GF |[M:2/2] G2 A4 F2 | G2 B2 A4 | z2 c4 F2 | G2 B4 AG | %48
w: se- ri- cor-|* * * * di- *|a e- * *||* * ius|a pro-|ge- * * *|
 A4 G2 F2- | F2 ED E2 A2 | G2 F3 E C2 | D6 E2 | F2 ED C2 c2- | c2 F2 G2 A2 | B6 AG | A2 G2 c4 | %56
w: * * ni|* * * e in|pro- ge * *||* ni- * es, a|* pro- ge- *||ni- e in|
 B2 A4 GF | B2 A3 G F2 | E4 z2 c2- | c2 F2 GA B2- | BA A4 G2 | A8 | z4 z2 A2 | A4 F4 | G4 A4 | %65
w: pro- ge- * *|* ni * *|es, in|* pro- ge * *|* * * ni-|es|ti-|men- ti-|bus *|
 G4 F4- | F4 z4 | z2 A2 A4 | F4 G2 A2 | G2 F3 E E2 | %70
w: e- um,||ti- men-|­ti- bus e-||
"^Fecit potentiam in brachio\nsuo. Dispersit superbos\nmente cordis sui." F8 ||[M:2/2] F8 | %72
w: um.|De-|
 G4 A4- | A2 A2 A4 | A4 B4- | B2 A2 A4- | A2 GF G4 | A8- |[M:2/2] A8 | z4 A4 | A4 A4 | F8 | G4 A4 | %83
w: po- *|* su- it|po- ten-|* tes de|* * * se-|de||et|ex- al-|ta-|vit *|
 G6 G2 | F8- |"^Esurientes implevit bonis\net divites dimisit inanes." F8 ||[M:2/2] C8 | D4 E4- | %88
w: hu- mi-|les.||Sus-|ce- *|
 E2 E2 E2 E2 | E4 F4- | F2 E2 D2 d2- | dB c2 F2 A2- |[M:2/2] A2 D4 d2- | d2 cB c2 F2 | G2 A3 G G2 | %95
w: * pit Is- ra-|el pu-|* e- rum su-|* * * um, pu-|* e- rum|* * * * su-||
 A4 z2 c2- | c2 c2 d3 c | A2 c2 F3 G | AB A3 G F2- | F2 E2 F2 A2- | AB c2 F2 A2- | AG F2 E2 G2- | %102
w: um re-|* cor- da- *|||* * tus, re-|* * * cor- da||
 GF F4 E2 | F8 | z2 d2 d2 d2 | cBAG FE F2- | F2 E2 D2 C2 | D2 d2 d2 d2 | cBAG FE G2- | GF F4 E2 | %110
w: |­tus|mi- se- ri-|cor * * * * * *|* di- ae su-|ae, mi- se- ri-|cor * * * * * *|* di- ae su-|
"^Sicut locutus est \nad patres nostros,\nAbraham et semini\neius in saecula." F8 || %111
w: ae.|
[M:2/2] z4 F4- | F4 B4 | A2 GF G4 | F4 A4- | A2 F2 G4- | G2 FE FG A2- |[M:2/2] AG c3 BAG | %118
w: Glo-|* ri-|a * * pa-|tri et|* fi- *|* li * * * *||
 F4 z2 A2 | A2 A2 B2 A2 | GF F3 E E2 | F8 | z2 A2 A2 A2 | B3 A GF F2- | F2 E2 F4 | z2 c2 c2 c2 | %126
w: o et|spi- ri- tu- i|sanc * * * *|to,|et spi- ri-|tu- i sanc * *|* * to,|et spi- ri-|
 d3 c BA B2- | B2 AG F4 | z2 A2 A2 A2 | B3 A G2 F2- | F2 E2 F4 | z2 c2 c2 c2 | d3 c BA B2- | %133
w: tu- i sanc * *|* * * to,|et spi- ri-|tu- i sanc *|* * to,|et spi- ri-|­tu- i sanc * *|
 B2 AG F3 G |"^Sicut erat in principio\net nunc et semper et in\nsaecula saeculorum.\nAmen." A8 |] %135
w: |to.|
V:2
 z2 F2 A2 A2 | B3 A B2 c2- | cBAG F2 c2 | d2 f3 e e2 | f2 c2 c2 c2 |[M:2/2] d3 c d2 e2 | %6
w: A- ni- ma|me * * *|* * * * a do-|* * * mi-|num, a- ni- ma|me- * * a|
 A3 B cd c2- | c2 B2 c2 e2 | d2 f3 e c2 | d3 c d2 e2 | f2 FG ABcB | d4 c4 | c8 ||[M:2/2] f4 e2 f2 | %14
w: do- * * * *|* mi- num, a-|* * ni- ma|me- * * *|­a do- * * * * *|* mi-|num.|Qui- a re-|
 d2 c4 BA | Bc d2 c2 d2 | B4 A4 | z2 c2 f4- | f2 e2 d4 |[M:2/2] c2 f4 e2 | d3 e f4 | f4 d4 | %22
w: spe * * *||* xit|hu- mi-|* li- ta-|­tem an- *|cil- * lae|su- ae.|
 z2 f2 e2 d2 | f3 f f2 e2 | d2 c3 A a2 | g2 f3 edc | B2 c2 F4 | G2 B4 A2 | B2 c2 d4 | c3 B A2 B2 | %30
w: Ec- ce, e-|nim ex hoc be-|a- tam * me|di- * * * *|* cent, be-|a- tam me|di * *||
 G4 F2 f2 | d2 e2 f2 g2- | ge a3 g g2- | gf f2 e2 f2 | c2 d2 c4 | B2 A3 G c2- | cB B2 c4- | c8 || %38
w: * cent om-|nes ge- ne- ra-|* ti- o * *||||* * * nes.||
 z8 | z8 | z8 | z8 | z8 | z8 | z8 | z8 | z8 | z8 | z8 | z8 | z8 | z8 | z8 | z8 | z8 | z8 | z8 | %57
w: |||||||||||||||||||
 z8 | z8 | z8 | z8 | z8 | z8 | z8 | z8 | z8 | z8 | z8 | z8 | z8 | z8 ||[M:2/2] c8 | d4 e4- | %73
w: ||||||||||||||De-|po- *|
 e2 e2 f4 | f4 f4- | f2 f2 f4 | d4 d4 | z2 f4 e2- |[M:2/2] e2 d4 cB | c2 d2 e4 | d2 f3 e c2 | %81
w: * su- it|po- ten-|* tes de|se- de|et ex-|* al- ta *||vit hu * *|
 d4 B2 c2 | d2 e2 f4 | d4 e4 | d8 | c8 ||[M:2/2] A8 | B4 c4- | c2 c2 c2 c2 | c4 d3 c | %90
w: mi- les, et|ex- al- ta-|­vit hu-|mi-|les.|Sus-|ce- *|* pit Is- ra-|el pu- *|
 A2 c2 F2 f2- | fd e2 d2 c2 |[M:2/2] d4 z2 d2 | f2 ed e2 d2- | dB c2 d4 | z2 c4 c2 | e4 f4- | %97
w: * e- rum su||­um, pu-|e- * * rum *|* * su- um|re- cor-|da- tus|
 f2 e2 d2 d2 | c4 d4 | B4 c2 f2- | f2 e2 d2 c2- | cB B2 c4 | z2 c2 c2 c2 | cBAG A2 B2- | %104
w: * mi- se- ri-|cor- di-|* ae su-||* * * ae,|mi- se- ri-|­cor * * * * di-|
 BABc defd | edcB A2 d2 | d2 e2 f2 e2 | d4 B4 | c8 | d2 B2 c4- | c8 ||[M:2/2] c8 | d4 d4 | c8 | %114
w: * * * * ae * * *|su * * * ae, mi-|se- ri- cor- di-|ae su-||* * ae.||Glo-|ri- a|pa-|
 A8 | d6 cB | c2 d3 e f2- |[M:2/2] f2 ed e4 | z4 d4 | d4 d4- | d4 B4 | c4 d3 c | B2 AG F2 f2- | %123
w: tri|et * *|* fi- * *|* li ­ o|et|spi- ri-|* tu-|i sanc- *|* * * to, et|
 fedc d4 | c6 B2 | c4 G2 A2 | B4 z2 d2 | d2 c2 d4- | d4 A4 | d8 | c6 B2 | A2 GF G3 A | B4 d4- | %133
w: |spi- ri-|tu- i sanc-|to, et|spi- ri- tu-|* i,|et|spi- ri-|tu * * * *|­i sanc-|
 d8 | c8 |] %135
w: |to.|
V:3
 z8 | z8 | F4 A2 A2 | B3 A B2 c2- | cBAG F4 |[M:2/2] z4 z2 c2 | e2 e2 f3 e | d2 d2 c4 | %8
w: ||A- ni- ma|me- * a do-|* * * mi- num,|a-|ni- ma me- a|do- mi- num,|
 z2 F2 A2 A2 | B3 A B2 c2- | cBAG F2 G2 | A2 B2 G4 | F8 ||[M:2/2] z8 | z8 | z2 f2 e2 f2 | %16
w: a- ni- ma|me * * *|* * * * * a|do- * mi-|num.|||Qui- a re-|
 d4 c2 d2- | dc c4 B2 | A2 GF G4 |[M:2/2] z2 F2 c4- | c2 B2 c2 d2 | c2 A2 B2 d2- | dc A2 B4 | A8 | %24
w: spe * *||* * * xit|hu- mi-|* li- ta- tem|an- cil- lae su||ae.|
 z4 z2 f2 | e2 d2 f3 f | f2 e2 d2 cB | c2 d2 c2 F2 | F2 G2 B3 A | GF G3 F F2- | F2 E2 F4 | %31
w: Ec-|­ce, e- nim ex|hoc be- a * *|* * tam, be-|a- tam me *|* * di- * *|* * cent|
 z4 z2 c2- | c2 A2 B2 c2 | d2 B2 c4 | A2 B4 A2 | B2 d2 c4 | F4 G4 | F8 ||[M:2/2] F6 G2 | %39
w: om-|* nes ge- ne-|ra- ti- o-||||nes.|Et mi-|
 A2 F2 B4- | B2 AG A2 B2 | c2 d3 cdB | c6 B2 | c4 d4 |[M:2/2] z2 c4 d2 | e2 d2 f3 e | d2 cB c2 d2 | %47
w: se- ri- cor-|* * * * di-|a e- * * *||* ius,|et mi-|se- ri- cor- *|* di ­ a e-|
 B4 z2 c2- | c2 F2 G2 B2 | A4 z2 f2 | e2 d3 c c2- | c2 BA B2 c2 | B4 A4 | z2 f4 c2 | d2 e2 f4- | %55
w: ius a|* pro- ge- ni-|e in|pro- ge- * *||ni- es,|a pro-|ge * *|
 f2 ed e2 f2 | d2 c2 d4 | z2 c4 F2 | G2 A2 B2 AG | A2 f2 e2 d2- | dccB/A/ B4 | A4 z2 A2 | %62
w: * ni- e in pro-|­ge- ni- es,|a pro-|ge- * * ni- *|e in pro- ge-|* * * * * ni-|es ti-|
 B3 A B2 c2 | F2 c2 d3 c | d2 e2 dc f2- | fe e2 f4 | z2 A2 B3 A | B2 c2 F2 c2 | d3 c d2 e2 | %69
w: ­men- ti- bus e-|um, ti- men- ti-|bus e * * *|* * * um,|ti- men- ti-|bus e- um, ti-|­men- ti- bus e|
 d2 c3 B B2 | c8 ||[M:2/2] A8 | G4 c4- | c2 c2 d4 | c4 d4- | d2 c2 c4 | B3 A B4 | A8 | %78
w: |um.|De-|po- *|* su- it|po- ten-|* tes de|se- * *|de|
[M:2/2] z2 f4 e2- | e2 d4 c2 | d4 c2 A2 | B3 c d2 c2- | c2 B2 A2 c2- | c=B B2 c4 | A2 B4 AG | A8 || %86
w: et ex-|* al- ta-|vit hu- *|* mi- les, et|* ex- al- ta-|* * * vit|hu- * mi *|les.|
[M:2/2] z4 F4- | F4 G4 | A6 A2 | A2 A2 A4- | A4 B4- | B2 A2 A4- |[M:2/2] A2 GF G4 | A8 | z8 | %95
w: Sus-|* ce-|* pit|Is- ra- el|* pu-|* e- rum|* * * su-|um||
 A4 A4 | A8 | A8- | A8 | z4 A4 | A2 A2 A4 | F4 G4 | A4 G4 | F8- | F8 | z4 z2 A2 | A2 A2 A4 | %107
w: re- cor-|da-|­tus||mi-|se- ri- cor-|di- ae|* su-|­ae,||mi-|se- ri- cor-|
 F4 G4 | A6 GA | BAGF G4 | F8 ||[M:2/2] F8 | B3 c de f2- | f2 ed e4 | d6 cB | A2 B3 AGF | %116
w: di- ae||* * * * su-|ae.|Glo-|||* ri- *|a pa- * * *|
 G2 A4 F2 |[M:2/2] c4 c3 B | AG B4 AG | F2 D2 G2 F2 | B3 A G4 | F4 z2 d2 | d2 d2 f3 e | dc B4 A2 | %124
w: * tri et|fi- li *||o, et fi- *|* * li-|o et|spi- ri- tu- *|* * * i|
 G2 A4 F2 | GFED E4 | F8 | z2 A2 A2 A2 | B2 AG F4- | F4 B3 A | GF G3 F F2- | F2 ED E4 | F8- | F8- | %134
w: sanc * *||to,|et spi- ri-|tu * * i|* sanc *|||­to.||
 F8 |] %135
w: |
V:4
 z8 | z8 | z8 | z8 | F,4 A,2 A,2 |[M:2/2] B,3 A, B,2 C2- | CB,A,G, F,4 | G,4 z2 C,2 | D,3 E, F,4 | %9
w: ||||A- ni- ma|me- * a do-|* * * * mi-|num, a-|ni- ma me-|
 B,,4 z2 C,2 | F,3 F, F,2 E,2 | D,2 B,,2 C,4 | F,8 ||[M:2/2] z8 | z8 | %15
w: a, a-|­ni- ma me- a|do- * mi-|num.|||
"^© Michael Wendel 2006\nThis edition may be freely duplicated, distributed, performed or recorded for non-profit performance or use.\n" z8 | %16
w: |
 z4 F,4 | E,2 F,2 D,4 | C,4 z4 |[M:2/2] z4 z2 C,2 | G,3 G, F,2 D,2 | F,4 G,4- | G,2 F,2 G,4 | %23
w: Qui-|a re- spe-|xit|hu-|mi- li- ta- tem|an- cil-|* lae su-|
 D,4 z4 | z8 | z8 | z4 z2 F,2 | E,2 D,2 F,3 E, | D,2 C,2 B,,4 | C,4 D,2 B,,2 | C,4 z4 | z8 | z8 | %33
w: ae.|||Ec-|ce, e- nim ex|hoc be- a-|tam me di-|­cent|||
 z4 z2 F,2- | F,2 D,2 E,2 F,2 | G,2 D,2 F,3 E, | D,4 C,4 | F,8 ||[M:2/2] z8 | z8 | z8 | z8 | %42
w: om-|* nes ge- ne-|­ra- ti- o *||nes.|||||
 F,6 G,2 | A,2 F,2 B,4- |[M:2/2] B,2 A,G, A,2 B,2 | G,4 F,2 D,2- | D,E,F,G, A,2 B,2 | G,4 F,4- | %48
w: Et mi-|se- ri- cor-|* * * di- a|e- * *||* ius|
 F,4 z4 | z2 C4 F,2 | G,2 B,2 A,4 | z2 G,4 C,2 | D,2 E,2 F,3 G, | A,2 B,4 A,2 | G,4 F,4 | %55
w: |a pro-|­ge- ni- e,|a pro-|ge * * *||ni- e|
 z2 C4 F,2 | G,2 A,2 B,3 A, | G,2 F,3 E, D,2 | C,4 B,,2 F,2- | F,E, D,2 C,2 B,,2 | F,4 G,4 | %61
w: in pro-|­ge * * *|||* * * * ni-|es *|
 z2 D,2 F,2 F,2 | G,6 F,E, | D,2 A,2 B,3 A, | B,2 C2 F,4 | z2 C,2 D,3 C, | D,2 F,2 G,4- | %67
w: ti- men- ti-|­bus, * *|* ti- men- ti-|bus e- um,|ti- men- ti-|bus e- *|
 G,2 F,E, D,2 A,2 | B,3 A, B,2 C2 | B,2 A,2 G,4 | F,8 ||[M:2/2] F,8 | B,4 A,4- | %73
w: * * * um, ti-|­men- ti- bus e||um.|De-|po- *|
 A,2"^*" A,2"^*orig. d" D,4 | F,4 B,,4- | B,,2 F,2 F,4 | G,8 | D,6 C,B,, |[M:2/2] C,2 D,2 A,,4 | %79
w: * su- it|po- ten-|* tes de|se-||* * de|
 A,4 A,2 A,2 | D,4 F,4 | B,,2 B,4 A,2 | G,4 F,4 | G,4 C,4 | D,2 B,,3 C,D,E, | F,8 ||[M:2/2] F,8 | %87
w: et ex- al-|ta- *|vit hu- *|* mi-|­les, hu-|* mi * * *|les.|Sus-|
 D,4 C,4 | A,,6 A,,2 | A,,4 D,4- | D,2 C,2 B,,3 C, | D,2 C,2 D,2 A,,2 |[M:2/2] B,,8 | A,,4 z2 D,2 | %94
w: ce- pit|Is- ra-|el pu-|* e- rum *|* su- * *||um, pu-|
 G,2 F,2 B,3 A,/G,/ | F,8 | z4 D,4- | D,2 C,2 D,3 E, | F,4 D,4 | G,4 F,3 E, | D,2 C,2 D,2 A,,2 | %101
w: e- rum su- * *|um|re-|* cor- da- *|* tus|mi- se- ri-|cor- * * di-|
 D,4 C,4 | A,,3 B,, C,4 | z2 D,2 D,2 D,2 | D,4 B,,4 | C,4 D,4- | D,2 C,2 D,2 A,,2 | B,,8 | %108
w: ae su-|* * ae,|mi- se- ri-|cor- di-|ae *|* su * *|ae,|
 F,6 E,2 | D,4 C,4 | F,8 ||[M:2/2] z8 | B,,8 | C,8 | D,8 | D,4 _E,4- | E,2 D,2 D,4 | %117
w: su- *||ae.||Glo-|ri-||a pa-|* tri et|
[M:2/2] C,4 C,4 | D,8 | z8 | z8 | z4 D,4 | D,4 D,4 | B,,8 | C,4 D,4 | C,8 | B,,8 | z4 D,4 | %128
w: fi- li-|o|||et|spi- ri-|tu-|i *|sanc-|to,|et|
 D,4 D,4 | B,,8 | C,4 D,4 | C,8 | B,,8- | B,,8 | F,8 |] %135
w: spi- ri-|tu-|i *|sanc-|||to.|

